www/assets/icons/fork_right.svg

<svg xmlns="http://www.w3.org/2000/svg" width="24" height="24" viewBox="0 0 24 24" fill='currentColor'><path d="M13.59 15.59 15 17l4-4-4-4-1.41 1.41L15.17 12c-1.51-.33-3.73.08-5.17 1.36V6.83l1.59 1.59L13 7 9 3 5 7l1.41 1.41L8 6.83V21h2v-4c.73-2.58 3.07-3.47 5.17-3z"/></svg>

<svg width="24" height="24" viewBox="0 0 24 24" xmlns="http://www.w3.org/2000/svg" fill='currentColor'><path d="M13.59 15.59L15 17L19 13L15 9L13.59 10.41L15.17 12C13.66 11.67 11.44 12.08 10 13.36V6.83L11.59 8.42L13 7L9 3L5 7L6.41 8.41L8 6.83V21H10V17C10.73 14.42 13.07 13.53 15.17 14L13.59 15.59Z"/></svg>
